packages/ffe-icons/icons/open/300/sm/tornado.svg

<svg xmlns="http://www.w3.org/2000/svg" height="20" viewBox="0 -960 960 960" width="20"><path d="M196.155-795.999h567.69q37.384 0 56.268 32.654 18.885 32.654-.807 64.807L535.461-227.079Q516.769-195.925 480-195.925t-55.461-31.154L140.694-698.538q-19.692-32.153-.807-64.807 18.884-32.654 56.268-32.654Zm-10.385 70.462 67.384 111.538h453.692l67.384-111.538q3.462-6.154.192-12.309Q771.153-744 763.845-744h-567.69q-7.308 0-10.577 6.154-3.27 6.155.192 12.309Zm98.46 163.536 83.54 140.002h224.46l83.54-140.002H284.23Zm115.616 192 69.384 115.538q3.462 6.154 10.77 6.154t10.77-6.154l69.384-115.538H399.846Z"/></svg>

<svg xmlns="http://www.w3.org/2000/svg" height="20" viewBox="0 -960 960 960" width="20"><path d="M196.16-796h567.68q37.39 0 56.27 32.66 18.89 32.65-.8 64.8L535.46-227.08q-18.69 31.15-55.46 31.15-36.77 0-55.46-31.15L140.69-698.54q-19.69-32.15-.8-64.8Q158.77-796 196.16-796Zm-10.39 70.46L253.15-614h453.7l67.38-111.54q3.46-6.15.19-12.31-3.27-6.15-10.58-6.15H196.16q-7.31 0-10.58 6.15-3.27 6.16.19 12.31ZM284.23-562l83.54 140h224.46l83.54-140H284.23Zm115.62 192 69.38 115.54q3.46 6.15 10.77 6.15t10.77-6.15L560.15-370h-160.3Z"/></svg>
